!!!!SEGMENT: pl-gd--ee-1638--002-017_marenzio-luca--motettorum-pro-festis-totius-anni-in-visitatione-b-maria-cum-iucunditate.krn
!!!cenid: 15xx:1020
!!!COM: Marenzio, Luca
!!!COM-rismID: pe30003955
!!!CDT: ~1553-1599/08/22
!!!CNT: Italian
!!!GTL: Motettorum pro festis totius anni
!!!OTL: In visitatione B. Maria/Cum iucunditate
!!!OMV: 017
!!!PDT: 1588
!!!AGN:
!!!SMS-siglum: PL-GD
!!!SMS-shelfmark: Ee 1638
!!!SMS-shelfwork: 002-017 G
!!!SMS-variant:
!!!SMS-altvar:
!!!NIFC-rismSourceID: 1001202747
!!!NIFC-rismChildID: 990039238
!!!NIFC-islandoraID: pl-gd:57883
!!!URL-pdf-islandora: https://repozytorium.nifc.pl/islandora/object/pl-gd%3A57883/datastream/PDF/view
!!!URL-scan: https://polish.musicsources.pl/pl/lokalizacje/galeria/klocki-introligatorskie/655 @EN{Scan on Polish Music Sources Website} @PL{Skany w portalu Dziedzictwo Muzyki Polskiej w otwartym dostępie}
!!!ONB-nifc: UWAGA: Cantus: s. 624 (prawa), Altus: s. 472 (prawa), Tenor: s. 320 (prawa), Bassus: s. 168 (prawa)
!!!AIN: 1 alto 1 bass 1 soprn 1 tenor
!!!key:
**kern	**text	**kern	**text	**kern	**text	**kern	**text
*part4	*part4	*part3	*part3	*part2	*part2	*part1	*part1
*staff4	*staff4	*staff3	*staff3	*staff2	*staff2	*staff1	*staff1
*I"Basso	*	*I"Tenor	*	*I"Altus	*	*I"Cantus	*
*I'B	*	*I'T	*	*I'A	*	*I'C	*
*Ibass	*	*Itenor	*	*Ialto	*	*Isoprn	*
*ICvox	*	*ICvox	*	*ICvox	*	*ICvox	*
*IG	*	*	*	*	*	*	*
*clefF3	*	*clefC3	*	*clefC2	*	*clefG2	*
*k[b-]	*	*k[b-]	*	*k[b-]	*	*k[b-]	*
*d:	*	*d:	*	*d:	*	*d:	*
*M2/1	*	*M2/1	*	*M2/1	*	*M2/1	*
*met(C|)	*	*met(C|)	*	*met(C|)	*	*met(C|)	*
=1-	=1-	=1-	=1-	=1-	=1-	=1-	=1-
*xywh-#168:4533,527,3560,801	*	*	*	*	*	*	*
*	*	*xywh-#320:4512,530,3580,791	*	*	*	*	*
*	*	*	*	*xywh-#472:4470,532,3566,807	*	*	*
*	*	*	*	*	*	*xywh-#624:4620,512,3439,807	*
!	!	!	!	!	!	!LO:TX:a:B:t=Prestissimo	!
0r	.	0r	.	2.g\	CVm	0r	.
.	.	.	.	4g\	iu-	.	.
.	.	.	.	2g\	-cun-	.	.
.	.	.	.	2a\	-di-	.	.
=2-	=2-	=2-	=2-	=2-	=2-	=2-	=2-
0r	.	0r	.	1.b-	-ta-	2.dd\	CVm
.	.	.	.	.	.	4dd\	iu-
.	.	.	.	.	.	2dd\	-cun-
.	.	.	.	4a\	.	2ee\	-di-
.	.	.	.	4g\	.	.	.
=3-	=3-	=3-	=3-	=3-	=3-	=3-	=3-
0r	.	0r	.	4f\	.	1.ff	-ta-
.	.	.	.	4e/	.	.	.
.	.	.	.	4d/	.	.	.
.	.	.	.	4e/	.	.	.
.	.	.	.	4f\	.	.	.
.	.	.	.	4g\	.	.	.
.	.	.	.	4a\	.	4ee\	.
.	.	.	.	4f\	.	4dd\	.
=4-	=4-	=4-	=4-	=4-	=4-	=4-	=4-
2.G\	CVum	0r	.	4g\	.	4ee\	.
.	.	.	.	4f\	.	4dd\	.
.	.	.	.	4e/	.	1dd	.
!	!	!	!	!LO:SIC:v:t=custos e	!	!	!
4G\	iu-	.	.	4d/	.	.	.
*	*	*	*	*xywh-#472:4485,1206,3503,721	*	*	*
!	!	!	!	!LO:LB:g=original	!	!	!
2G\	-cun-	.	.	1e	.	.	.
2A\	-di-	.	.	.	.	2cc#X\	.
=5-	=5-	=5-	=5-	=5-	=5-	=5-	=5-
1.B-	-ta-	2.d\	CVm	4d/	-te	1.dd	-te
.	.	.	.	4e/	.	.	.
.	.	.	.	4f\	.	.	.
.	.	4d\	iu-	4g\	.	.	.
.	.	2d\	-cun-	4f\	.	.	.
.	.	.	.	4g\	.	.	.
4A\	.	2e\	-di-	2a\	.	4ccny\	.
4G\	.	.	.	.	.	4b-/	.
=6-	=6-	=6-	=6-	=6-	=6-	=6-	=6-
4F/	.	1.f	-ta-	0r	.	0a	.
4E/	.	.	.	.	.	.	.
4D/	.	.	.	.	.	.	.
4E/	.	.	.	.	.	.	.
4F/	.	.	.	.	.	.	.
4G\	.	.	.	.	.	.	.
4A\	.	4e\	.	.	.	.	.
4F/	.	4d\	.	.	.	.	.
=7-	=7-	=7-	=7-	=7-	=7-	=7-	=7-
!	!	!	!	!	!	!LO:SIC:v:t=custos dd	!
4G\	.	4e\	.	2r	.	0r	.
*	*	*	*	*	*	*xywh-#624:4558,1149,3563,706	*
!LO:SIC:v:t=custos E	!	!	!	!	!	!LO:LB:g=original	!
4F/	.	4d\	.	.	.	.	.
*xywh-#168:4564,1210,3505,668	*	*	*	*	*	*	*
!LO:LB:g=original	!	!	!	!	!	!	!
*	*	*	*	*	*ij	*	*
4E/	.	1d	.	2.g\	Cum	.	.
4D/	.	.	.	.	.	.	.
1E	.	.	.	.	.	.	.
.	.	.	.	4g\	iu-	.	.
.	.	2c/	.	2g\	-cun-	.	.
=8-	=8-	=8-	=8-	=8-	=8-	=8-	=8-
1D	-te	1f	-te	2a\	-di-	2.dd\	Cu(m)
.	.	.	.	1b-	-ta-	.	.
.	.	.	.	.	.	4dd\	iu-
1r	.	1r	.	.	.	2dd\	-cun-
.	.	.	.	4a\	.	2ee\	-di-
.	.	.	.	4g\	.	.	.
=9-	=9-	=9-	=9-	=9-	=9-	=9-	=9-
*	*	*	*ij	*	*	*	*
0r	.	2.d\	cum	4f\	.	1.ff	-ta-
.	.	.	.	4g\	.	.	.
.	.	.	.	1a	.	.	.
.	.	4d\	iu-	.	.	.	.
.	.	2d\	-cun-	.	.	.	.
!	!	!LO:SIC:v:t=custos f	!	!	!	!	!
.	.	2e\	-di-	2g\	.	4ee\	.
*	*	*xywh-#320:4535,1206,3473,676	*	*	*	*	*
!	!	!LO:LB:g=original	!	!	!	!	!
.	.	.	.	.	.	4dd\	.
=10-	=10-	=10-	=10-	=10-	=10-	=10-	=10-
0r	.	1.f	-ta-	2a\	-te	4cc\	.
*	*	*	*	*	*Xij	*	*
.	.	.	.	.	.	4b-/	.
.	.	.	.	2d/	cum	4a/	.
.	.	.	.	.	.	4b-/	.
.	.	.	.	2a\	iu-	4cc\	.
.	.	.	.	.	.	4dd\	.
.	.	4e\	.	1cc\	-cun-	4ee\	.
.	.	4d\	.	.	.	4ff\	.
=11-	=11-	=11-	=11-	=11-	=11-	=11-	=11-
*	*ij	*	*	*	*	*	*
2.G\	cum	4e\	.	.	.	4gg\	.
.	.	4d\	.	.	.	4ff\	.
!	!	!	!	!LO:SIC:v:t=custos b	!	!	!
.	.	1d	.	2b-\	-di-	4ee\	.
*	*	*	*	*xywh-#472:4501,1794,3448,642	*	*	*
!	!	!	!	!LO:LB:g=original	!	!	!
4G\	iu-	.	.	.	.	4dd\	.
2G\	-cun-	.	.	2b-\	-ta-	1ee	.
2A\	-di-	2c#X/	.	4a\	.	.	.
.	.	.	.	4g\	.	.	.
=12-	=12-	=12-	=12-	=12-	=12-	=12-	=12-
1.B-	-ta-	0d	-te	4f\	.	0dd	-te
*	*	*	*Xij	*	*	*	*
.	.	.	.	4e/	.	.	.
.	.	.	.	4d/	.	.	.
.	.	.	.	4e/	.	.	.
.	.	.	.	4f\	.	.	.
.	.	.	.	4d/	.	.	.
4A\	.	.	.	1g\	.	.	.
4G\	.	.	.	.	.	.	.
=13-	=13-	=13-	=13-	=13-	=13-	=13-	=13-
1A	.	1r	.	.	.	1r	.
.	.	.	.	2f#X\	.	.	.
1G	-te	2r	.	1g	-te	2r	.
*	*Xij	*	*	*	*	*	*
.	.	1d\	vi-	.	.	1dd\	vi-
=14-	=14-	=14-	=14-	=14-	=14-	=14-	=14-
0r	.	.	.	0r	.	.	.
.	.	2e\	-ſi-	.	.	2cc\	-ſi-
!	!	!	!	!	!	!LO:SIC:v:t=custos dd	!
.	.	2f\	-ta-	.	.	2cc\	-ta-
*	*	*	*	*	*	*xywh-#624:4566,1762,3447,636	*
!	!	!	!	!	!	!LO:LB:g=original	!
.	.	2d\	-ti-	.	.	2dd\	-ti-
=15-	=15-	=15-	=15-	=15-	=15-	=15-	=15-
1r	.	1g	-o-	1r	.	1b-	-o-
2r	.	1f	-nem	2r	.	0.a	-nem
2D/	Be-	.	.	2fny\	be-	.	.
=16-	=16-	=16-	=16-	=16-	=16-	=16-	=16-
1d	-a-	0r	.	1f	-a-	.	.
2c\	-tae	.	.	2e/	-tae	.	.
!LO:SIC:v:t=custos B	!	!	!	!	!	!	!
2A\	Ma-	.	.	2f\	Ma-	.	.
*xywh-#168:4572,1768,3520,660	*	*	*	*	*	*	*
!LO:LB:g=original	!	!	!	!	!	!	!
=17-	=17-	=17-	=17-	=17-	=17-	=17-	=17-
1B-	-ri-	2r	.	1d	-ri-	2r	.
*	*	*	*ij	*	*	*	*ij
.	.	1d	vi-	.	.	1ff	vi-
1A	-ae	.	.	1a	-ae	.	.
.	.	2cny/	-si-	.	.	2ee\	-si-
=18-	=18-	=18-	=18-	=18-	=18-	=18-	=18-
2r	.	2c/	-ta-	2r	.	2ee\	-ta-
1D	vi-	2d\	-ti-	1f	vi-	2ff\	-ti-
.	.	1B-	-o-	.	.	1dd	-o-
2E/	-ſi-	.	.	2g\	-ſi-	.	.
=19-	=19-	=19-	=19-	=19-	=19-	=19-	=19-
2F/	-ta-	1A	-nem	2a\	-ta-	2cc\	-nem
*	*	*	*Xij	*	*	*	*Xij
2D/	-ti-	.	.	2f\	-ti-	2dd\	be-
!	!	!	!	!LO:SIC:v:t=custos a	!	!	!
1G	-o-	1r	.	1b-	-o-	1.dd	-a-
*	*	*	*	*xywh-#472:4485,2319,3581,705	*	*	*
!	!	!	!	!LO:LB:g=original	!	!	!
=20-	=20-	=20-	=20-	=20-	=20-	=20-	=20-
1F	-nem	2r	.	2a\	-nem	.	.
!	!	!LO:SIC:v:t=custos d	!	!	!	!	!
.	.	2A/	be-	2a\	be-	2cc\	-tae
*	*	*xywh-#320:4489,1752,3496,699	*	*	*	*	*
!	!	!LO:LB:g=original	!	!	!	!	!
1r	.	1d	-a-	1f	-a-	2a/	Ma-
.	.	.	.	.	.	2.b-/	-ri-
=21-	=21-	=21-	=21-	=21-	=21-	=21-	=21-
2r	.	2c/	-tae	2e/	-tae	.	.
.	.	.	.	.	.	4a/	.
*	*ij	*	*	*	*	*	*
1D	vi-	2A/	Ma-	2f\	Ma-	1a	.
.	.	1B-	-ri-	1d	-ri-	.	.
2E/	-si-	.	.	.	.	2g/	.
=22-	=22-	=22-	=22-	=22-	=22-	=22-	=22-
2F/	-ta-	2A/	-ae	2c/	-ae	2a/	-ae
2D/	-ti-	4d\	ce-	2.B-/	.	4ff\	ce-
.	.	4c/	.	.	.	4ee\	.
1G	-o-	4B-/	.	.	.	4dd\	.
.	.	4A/	.	4c/	.	4cc\	.
!	!	!	!	!	!	!LO:SIC:v:t=custos a	!
.	.	2G/	.	4d/	.	2b-/	.
*	*	*	*	*	*	*xywh-#624:4542,2251,3571,737	*
!	!	!	!	!	!	!LO:LB:g=original	!
.	.	.	.	4e/	.	.	.
=23-	=23-	=23-	=23-	=23-	=23-	=23-	=23-
2F/	-nem	2A/	-le-	1f	.	2a/	-le-
*	*Xij	*	*	*	*	*	*
2BB-/	be-	4B-/	-bre-	.	.	4dd\	-bre-
.	.	4A/	.	.	.	4cc\	.
1E-X	-a-	4G/	.	2.B-/	le-	4b-/	.
.	.	4F/	.	.	.	4a/	.
.	.	4G/	.	.	.	2g/	.
.	.	4A/	.	4c/	.	.	.
=24-	=24-	=24-	=24-	=24-	=24-	=24-	=24-
2D/	-tae	4B-/	.	1d	.	1f	-mus
.	.	4F/	.	.	.	.	.
!LO:SIC:v:t=custos C	!	!	!	!	!	!	!
2BB-/	Ma-	2.B-/	.	.	.	.	.
*xywh-#168:4604,2326,3450,644	*	*	*	*	*	*	*
!LO:LB:g=original	!	!	!	!	!	!	!
1C	-ri-	.	.	1e-X	-bre-	1r	.
.	.	8A/	.	.	.	.	.
.	.	8G/	.	.	.	.	.
.	.	2A/	.	.	.	.	.
=25-	=25-	=25-	=25-	=25-	=25-	=25-	=25-
1BB-	-ae	1B-	-mus	2d/	-mus	2r	.
.	.	.	.	2.d/	ce-	4ff\	ce-
.	.	.	.	.	.	4ee\	.
2.B-\	coe-	2.d\	ce-	.	.	4dd\	.
.	.	.	.	4eny/	.	4cc\	.
.	.	.	.	2.f\	.	2b-/	.
!	!	!LO:SIC:v:t=custos f	!	!	!	!	!
4c\	.	4e\	.	.	.	.	.
*	*	*xywh-#320:4527,2328,3457,622	*	*	*	*	*
!	!	!LO:LB:g=original	!	!	!	!	!
=26-	=26-	=26-	=26-	=26-	=26-	=26-	=26-
2d\	.	1f	.	.	.	2a/	-le-
.	.	.	.	4g\	.	.	.
2D/	-le-	.	.	1a	.	4aa\	-bre-
.	.	.	.	.	.	4gg\	.
4D/	-bre-	1f	-le-	.	.	4ff\	.
4Eny/	.	.	.	.	.	4ee\	.
!	!	!	!	!LO:SIC:v:t=custos a	!	!	!
4F/	.	.	.	2a\	-le-	1dd\	.
*	*	*	*	*xywh-#472:4493,2892,3432,658	*	*	*
!	!	!	!	!LO:LB:g=original	!	!	!
4G\	.	.	.	.	.	.	.
=27-	=27-	=27-	=27-	=27-	=27-	=27-	=27-
1A	.	1e	-bre-	1a	-bre-	.	.
.	.	.	.	.	.	2cc#X\	.
0D	-mus	0.d	-mus	1a	-mus	2.dd\	-mus
.	.	.	.	.	.	8cc#\	.
.	.	.	.	.	.	8b-\	.
=28-	=28-	=28-	=28-	=28-	=28-	=28-	=28-
.	.	.	.	2r	.	0.a	.
.	.	.	.	2d/	vt	.	.
2r	.	.	.	1f	ip-	.	.
2D/	vt	.	.	.	.	.	.
=29-	=29-	=29-	=29-	=29-	=29-	=29-	=29-
1F	ip-	1r	.	2d/	-ſa	.	.
.	.	.	.	2c/	pro	.	.
2D/	-ſa	0A	vt	2f\	no-	1r	.
2C/	pro	.	.	4e/	.	.	.
.	.	.	.	4d/	.	.	.
=30-	=30-	=30-	=30-	=30-	=30-	=30-	=30-
!	!	!	!	!	!	!LO:SIC:v:t=custos gg	!
2F/	no-	.	.	4c/	.	0r	.
*	*	*	*	*	*	*xywh-#624:4527,2779,3524,683	*
!	!	!	!	!	!	!LO:LB:g=original	!
.	.	.	.	4d/	.	.	.
4E/	.	.	.	4e/	.	.	.
!LO:SIC:v:t=custos C	!	!	!	!	!	!	!
4D/	.	.	.	4f\	.	.	.
*xywh-#168:4596,2892,3403,628	*	*	*	*	*	*	*
!LO:LB:g=original	!	!	!	!	!	!	!
4C/	.	1c	ip-	1e	.	.	.
4D/	.	.	.	.	.	.	.
4E/	.	.	.	.	.	.	.
4F/	.	.	.	.	.	.	.
=31-	=31-	=31-	=31-	=31-	=31-	=31-	=31-
1G	.	1B-	-ſa	1d	-bis	0r	.
1D	-bis	1A	pro	2r	.	.	.
.	.	.	.	2d/	in-	.	.
=32-	=32-	=32-	=32-	=32-	=32-	=32-	=32-
2r	.	1d	no-	2f\	-ter-	0r	.
2D/	in-	.	.	2.a\	-ce-	.	.
2F/	-ter-	1c	-bis	.	.	.	.
.	.	.	.	4g\	.	.	.
2.A\	-ce-	.	.	2f\	.	.	.
=33-	=33-	=33-	=33-	=33-	=33-	=33-	=33-
.	.	1c	in-	2e/	-dat	0r	.
4G\	.	.	.	.	.	.	.
2F/	.	.	.	2a\	in-	.	.
!	!	!	!	!LO:SIC:v:t=custos cc	!	!	!
2E/	-dat	1c	-ter-	2g\	-ter-	.	.
*	*	*	*	*xywh-#472:4517,3440,3370,642	*	*	*
!	!	!	!	!LO:LB:g=original	!	!	!
*	*ij	*	*	*	*	*	*
2A\	in-	.	.	2.cc\	-ce-	.	.
=34-	=34-	=34-	=34-	=34-	=34-	=34-	=34-
2G\	-ter-	1e	-ce-	.	.	0ryy	.
.	.	.	.	4b-\	.	.	.
2.c\	-ce-	.	.	2a\	.	.	.
.	.	1e	-dat	2g\	-dat	.	.
4B-\	.	.	.	.	.	.	.
2A\	.	.	.	2cc\	ad	.	.
=35-	=35-	=35-	=35-	=35-	=35-	=35-	=35-
2G\	-dat	1g	ad	2b-\	do-	1r	.
*	*Xij	*	*	*	*	*	*
2c\	ad	.	.	2g\	-mi-	.	.
!LO:SIC:v:t=custos G	!	!	!	!	!	!	!
2B-\	do-	1.d	do-	1b-	-num	2r	.
*xywh-#168:4588,3442,3583,652	*	*	*	*	*	*	*
!LO:LB:g=original	!	!	!	!	!	!	!
2G\	-mi-	.	.	.	.	2gg\	ad
=36-	=36-	=36-	=36-	=36-	=36-	=36-	=36-
1B-	-num	.	.	4b-\	Ie-	2ff\	do-
.	.	.	.	8a\	.	.	.
.	.	.	.	8g\	.	.	.
.	.	2d\	-mi-	4f\	.	2dd\	-mi-
.	.	.	.	4g\	.	.	.
1.F	Ie-	1c	-num	1a	.	2ff\	-num
.	.	.	.	.	.	1ccny\	Ie-
=37-	=37-	=37-	=37-	=37-	=37-	=37-	=37-
.	.	1d	Ie-	2a\	-ſum	.	.
2G\	-ſum	.	.	1d	Chri-	2b-/	-ſum
!	!	!LO:SIC:v:t=custos A	!	!	!	!	!
0E-X	CHriſ-	0G	-ſum	.	.	1g	Chriſ-
*	*	*xywh-#320:4512,2843,3411,676	*	*	*	*	*
!	!	!LO:LB:g=original	!	!	!	!	!
.	.	.	.	4c/	.	.	.
.	.	.	.	4B-/	.	.	.
=38-	=38-	=38-	=38-	=38-	=38-	=38-	=38-
.	.	.	.	1c	.	1g	-tu(m)
0D	-tum	1A	Chriſ-	4d/	-ſtum	2r	.
.	.	.	.	4e/	.	.	.
.	.	.	.	4f\	.	2dd\	vt
.	.	.	.	4g\	.	.	.
=39-	=39-	=39-	=39-	=39-	=39-	=39-	=39-
.	.	2D/	-tum	1a	.	1ff	ip-
.	.	2d\	vt	.	.	.	.
!	!	!	!	!LO:SIC:v:t=custos a	!	!	!
1r	.	1f	ip-	1r	.	2dd\	-ſa
*	*	*	*	*xywh-#472:4501,3965,3432,666	*	*	*
!	!	!	!	!LO:LB:g=original	!	!	!
.	.	.	.	.	.	2cc\	pro
=40-	=40-	=40-	=40-	=40-	=40-	=40-	=40-
0r	.	2d\	-ſa	0a	vt	2ff\	no-
.	.	2c/	pro	.	.	4ee\	.
.	.	.	.	.	.	4dd\	.
.	.	2f\	no-	.	.	4cc\	.
.	.	.	.	.	.	4dd\	.
.	.	4e\	.	.	.	4ee\	.
.	.	4d\	.	.	.	4ff\	.
=41-	=41-	=41-	=41-	=41-	=41-	=41-	=41-
0r	.	4c/	.	1cc	ip-	1ee	.
.	.	4d\	.	.	.	.	.
.	.	4e\	.	.	.	.	.
.	.	4f\	.	.	.	.	.
!	!	!	!	!	!	!LO:SIC:v:t=custos a	!
.	.	1g	.	1b-	-ſa	1dd	-bis
*	*	*	*	*	*	*xywh-#624:4573,3338,3524,667	*
!	!	!	!	!	!	!LO:LB:g=original	!
=42-	=42-	=42-	=42-	=42-	=42-	=42-	=42-
0r	.	1d	-bis	1a	pro	2r	.
.	.	.	.	.	.	2a/	in-
.	.	2r	.	1g	no-	2b-/	-ter-
.	.	2G/	in-	.	.	2.dd\	-ce-
=43-	=43-	=43-	=43-	=43-	=43-	=43-	=43-
0D	vt	2A/	-ter-	1f	-bis	.	.
.	.	.	.	.	.	4cc\	.
.	.	2.d\	-ce-	.	.	2b-/	.
.	.	.	.	1f	in-	2a/	-dat
!	!	!LO:SIC:v:t=custos B	!	!	!	!	!
.	.	4c/	.	.	.	.	.
*	*	*xywh-#320:4535,3412,3465,614	*	*	*	*	*
!	!	!LO:LB:g=original	!	!	!	!	!
*	*	*	*	*	*	*	*ij
.	.	2B-/	.	.	.	2dd\	in-
=44-	=44-	=44-	=44-	=44-	=44-	=44-	=44-
00F	ip-	2A/	-dat	1f	-ter-	2cc\	-ter-
.	.	2d\	in-	.	.	2.ff\	-ce-
.	.	2c/	-ter-	1a	-ce-	.	.
.	.	.	.	.	.	4ee\	.
.	.	2.f\	-ce-	.	.	2dd\	.
=45-	=45-	=45-	=45-	=45-	=45-	=45-	=45-
.	.	.	.	1.a	-dat	2cc\	-dat
*	*	*	*	*	*	*	*Xij
.	.	4e\	.	.	.	.	.
.	.	2d\	.	.	.	2dd\	ad
.	.	2A/	-dat	.	.	2cc\	do-
.	.	2d\	ad	2f\	ad	2a/	-mi-
=46-	=46-	=46-	=46-	=46-	=46-	=46-	=46-
0E-X	-ſa	2c/	do-	1.g	do-	1cc	-num
.	.	2G/	-mi-	.	.	.	.
.	.	1B-	-num	.	.	2r	.
.	.	.	.	2b-\	-mi-	2g/	in-
=47-	=47-	=47-	=47-	=47-	=47-	=47-	=47-
1D	pro	2r	.	1f	-num	2a/	-ter-
.	.	2A/	in-	.	.	2.dd\	-ce-
1G	no-	2B-/	-ter-	1d	Ie-	.	.
.	.	.	.	.	.	4cc\	.
.	.	2.d\	-ce-	.	.	2b-/	.
=48-	=48-	=48-	=48-	=48-	=48-	=48-	=48-
1F	-bis	.	.	1f	-ſum	2a/	-dat
.	.	4c/	.	.	.	.	.
!	!	!	!	!	!	!LO:SIC:v:t=custos cc	!
*	*	*	*	*	*	*	*ij
.	.	2.f\	.	.	.	2dd\	in-
*	*	*	*	*	*	*xywh-#624:4542,3928,3602,636	*
!	!	!	!	!	!	!LO:LB:g=original	!
1F	in-	.	.	1a	Chriſ-	2cc\	-ter-
.	.	4e\	.	.	.	.	.
!	!	!LO:SIC:v:t=custos c	!	!	!	!	!
.	.	2d\	.	.	.	2.ff\	-ce-
*	*	*xywh-#320:4543,3919,3427,691	*	*	*	*	*
!	!	!LO:LB:g=original	!	!	!	!	!
=49-	=49-	=49-	=49-	=49-	=49-	=49-	=49-
1F	-ter-	2c/	-dat	0a	-tum	.	.
.	.	.	.	.	.	4ee\	.
.	.	2f\	ad	.	.	2dd\	.
1A	-ce-	2e\	do-	.	.	2cc\	-dat
*	*	*	*	*	*	*	*Xij
.	.	2c/	-mi-	.	.	2ff\	ad
=50-	=50-	=50-	=50-	=50-	=50-	=50-	=50-
1A	-dat	1e	-num	2r	.	2ee\	do-
!	!	!	!	!LO:SIC:v:t=custos g	!	!	!
.	.	.	.	2a\	ad	2cc\	-mi-
*	*	*	*	*xywh-#472:4470,4530,3519,862	*	*	*
!	!	!	!	!LO:LB:g=original	!	!	!
!LO:SIC:v:t=custos G	!	!	!	!	!	!	!
1c	ad	2r	.	2g\	do-	1ee	-num
*xywh-#168:4596,3961,3560,1414	*	*	*	*	*	*	*
!LO:LB:g=original	!	!	!	!	!	!	!
.	.	2c/	ad	2e/	-mi-	.	.
=51-	=51-	=51-	=51-	=51-	=51-	=51-	=51-
1.G	do-	2B-/	do-	1g	-num	2r	.
.	.	2G/	-mi-	.	.	2dd\	ad
.	.	4B-/	-num	2d/	ad	2b-/	do-
.	.	4c/	.	.	.	.	.
2G\	-mi-	4d\	.	1b-\	do-	2g/	-mi-
.	.	4e\	.	.	.	.	.
=52-	=52-	=52-	=52-	=52-	=52-	=52-	=52-
1F	-num	2.f\	Ie-	.	.	1cc	-num
.	.	.	.	2a\	-mi-	.	.
.	.	4e\	.	.	.	.	.
1G	Ie-	1d	.	2b-\	-num	2.gg\	Ie-
.	.	.	.	2.g\	Ie-	.	.
.	.	.	.	.	.	4ff\	.
=53-	=53-	=53-	=53-	=53-	=53-	=53-	=53-
0C	-ſum	2.g\	.	.	.	4ee-X\	.
.	.	.	.	4f\	.	4dd\	.
.	.	.	.	4e-X/	.	2.cc\	.
.	.	4f\	.	4d/	.	.	.
.	.	4e-X\	.	2.c/	.	.	.
!	!	!	!	!	!	!LO:SIC:v:t=custos a	!
.	.	4d\	.	.	.	4b-/	.
*	*	*	*	*	*	*xywh-#624:4535,4440,3602,908	*
!	!	!	!	!	!	!LO:LB:g=original	!
.	.	1c\	.	.	.	4a/	.
.	.	.	.	4B-/	.	4g/	.
=54-	=54-	=54-	=54-	=54-	=54-	=54-	=54-
0D	Chriſ-	.	.	2A/	.	2f#X/	.
.	.	2B-/	-ſum	2d/	-ſum	1g	-ſum
.	.	1A	Chriſ-	1d	Chriſ-	.	.
.	.	.	.	.	.	2f#X/	Chriſ-
=55-	=55-	=55-	=55-	=55-	=55-	=55-	=55-
00GG	-tu(m).	00G	-tu(m).	00d	-tum.	00g	-tum.
=56-	=56-	=56-	=56-	=56-	=56-	=56-	=56-
.	.	.	.	.	.	.	.
=-	=-	=-	=-	=-	=-	=-	=-
*-	*-	*-	*-	*-	*-	*-	*-
!!!system-decoration: s1,s2,s3,s4
!!!ENC: Andrzej Gręziak
!!!END: 2022-07-01
!!!ENC: Julita Ruszuk
!!!END: 2022-07-05
!!!YEC: Copyright 2022 Narodowy Instytut Fryderyka Chopina (https://polishscores.org)
!!!YEM: License CC-BY-4.0 (https://creativecommons.org/licenses/by/4.0)
!!!IIIF: https://repozytorium.nifc.pl/islandora/object/pl-gd%3A57883/datastream/IIIF/view
!!!ENC-iiif: Lidia Bialucha
!!!END-iiif: 2022-09-09
